!!! OTL: Berkowitz500
!!! Chapter: 1
!!! Section: IV
!!! Page: 125
!!! Mode: 
!!! Encoder: DJB
**kern
*staff1
*I"Piano
=1-
*clefG2
*k[f#c#]
*D:
*M5/4
8f#/L
8e#/
8f#/
[8A/
8A/]
8f#/J
8e#/L
8f#/J
4a/
=2
8g/L
8f#/
8g/
[8A/
8A/]
8g/J
8f#/L
8g/J
4b\
=3
4a/
8dd\
4cc#\
4g/
8b\
4a/
=4
4f#/
8a/
4g/
8e/
8f#/L
8g/J
4a/
=5
8b/L
8a#/
8b/
[8d/
8d/]
8b/J
8a#/L
8b/J
4ee\
=6
!!linebreak:original
8a/L
8g#/
8a/
[8c#/
8c#/]
8a/J
8b\L
8cc#\
8dd\
8ee\J
=7
4ff#\
8a/
4g/
4ee\
8g/
4f#/
=8
8dd\L
8cc#\
8b\
[8a\
8a\]
8g\J
8f#/L
8e/J
4d/
==
*-
